X: 1
T: Faroe Rum
O: Shetland
R: reel
S: handwritten MS
Z: 2005 John Chambers <jc:trillian.mit.edu>
M: C|
L: 1/8
K: D
|: "D"A(A2F) ABd(B | "D"AF)FD "A7"E2(FG) | "D"A(A2F) ABde | "A7"fafe "D"d2[f2d2] :|
|: "A7"e(AcA) e(AcA) | "D"ABde f2af | "A7"e(AcA) e(AcA) | "A7"e(gfe) "D"d2d2 :|


